!!!Melodie: eigene
!!!Typ: Lied
**kern	**silbe	**silbe	**silbe	**silbe	**silbe	**silbe	**silbe	**silbe
*clefG2	*lang:DE	*lang:DE	*lang:DE	*lang:DE	*lang:DE	*lang:DE	*lang:DE	*lang:DE
*k[b-]	*	*	*	*	*	*	*	*
*M2/2	*	*	*	*	*	*	*	*
*met(c)	*	*	*	*	*	*	*	*
4cc	Lass	Gib	Gib	dass	Lass	und	Ach,	stets
=	=	=	=	=	=	=	=	=
4cc	mich,	selbst	mei#	man	mich,	dei#	hilf	Dank
4b-	o	das	#nem	an	so	#nem	mir	und
4a	Herr,	Woll’n	Glau#	sei#	lang’	Wil#	be#	Ruhm
4cc	in	und	#ben	#nen	ich	#len	#ten,	und
=	=	=	=	=	=	=	=	=
4cc	al#	das	Mut	Früch#	hier	mich	wa#	Eh#
4b-	#len	Voll#	und	#ten	soll	er#	#chen,	#re
4b-	Din#	#brin#	Stär#	mer#	le#	#ge#	rin#	brin#
4;a	#gen	#gen,	#ke,	#ke,	#ben,	#ben,	#gen,	#gen,
=	=	=	=	=	=	=	=	=
4r	%	%	%	%	%	%	%	%
4cc	auf	und	und	er	in	der	so	dir,
4ff	dei#	lass	lass	sei	gut’	mir	will	der
4dd	#nen	mein	ihn	kein	und	zum	ich	du
=	=	=	=	=	=	=	=	=
4ee	Wil#	Herz	in	eit#	bö#	bes#	dir,	al#
4cc	#len	dir	der	#ler	#sen	#ten	wenn	#les
4dd	seh’n	ganz	Lie#	Traum	Ta#	al#	ich	hast
4ff	und	ge#	#be	und	#gen	#les	den	so
=	=	=	=	=	=	=	=	=
4ee	dir	#hei#	tä#	fal#	sein	weis#	Lauf	wohl
4dd	mich	#ligt	#tig	#scher	ver#	#lich	voll#	ge#
4cc	weih’n;	sein.	sein,	Schein.	#gnügt,	fügt;	#bracht,	#macht.
=:|	=	=	=	=	=	=	=	=
4cc	.	Nimm	.	Er	.	gib	.	Dann
=	=	=	=	=	=	=	=	=
4ee	.	mei#	.	stär#	.	Furcht	.	werd’
4ee	.	#nen	.	#ke	.	und	.	ich
4ff	.	Leib	.	mich	.	De#	.	hei#
4b-	.	und	.	in	.	#mut,	.	#lig,
=	=	=	=	=	=	=	=	=
4a	.	Geist	.	mei#	.	wann	.	rein
4cc	.	zum	.	#ner	.	du	.	und
4b-	.	Op#	.	Pil#	.	mich	.	un#
4a	.	#fer	.	#ger#	.	be#	.	#ent#
=	=	=	=	=	=	=	=	=
4;g	.	hin,	.	#schaft	.	#glückst,	.	#weiht,
4b-	.	dein,	.	und	.	Ge#	.	dein
4a	.	Herr,	.	ge#	.	#duld	.	Lob
4cc	.	ist	.	#be	.	und	.	ver#
=	=	=	=	=	=	=	=	=
4dd	.	al#	.	mir	.	Trost,	.	#kün#
4dd	.	#les,	.	zum	.	wenn	.	#di#
4ee	.	was	.	Kampf	.	du	.	#gen
8Lff	.	ich	.	und	.	mir	.	in
8Jgg	.	|	.	|	.	|	.	|
=	=	=	=	=	=	=	=	=
4ff	.	hab	.	Sie#	.	Trüb#	.	E#
4ee	.	und	.	#ge	.	#sal	.	#wig#
4ff	.	bin.	.	Kraft.	.	schickst.	.	#keit.
==	==	==	==	==	==	==	==	==
*-	*-	*-	*-	*-	*-	*-	*-	*-
